X: 714
T: Ey Hüsn ü Cemal
C: Ahmed Irsoy
O: Turkey
F: http://compmusic.upf.edu/node/140
N: huzzam--sarki--aksak--ey_husn--ahmet_irsoy
N: makam= huzzam
N: form= sarki
N: usul= aksak = 9/8
M: 9/8
L: 1/16
K: C _1/4B _3/4e ^3/4f 
Q: 1/4=126
%%MIDI tuningsystem comma53
G2A2 B2c2 A2B2 c2d2 e2 | c3de2 f2d3ef2 g2a2  | \
w:  ARANAĞME  |   | 
g3c' bc'ab gafg efde dc | 
w:   | 
Bc def2 eddc cBB4z2  | G2A2 B2c2 A2B2 c2d2 e2 | 
w:   |  ARANAĞME  | 
c3de2 f2d3ef2 g2a2  | g3c' bc'ab gafg efde dc | 
w:   |   | 
Bc def2 eddc cBB4z2  | c3d d4 f2ed d4 cB | 
w:   |  Ey  *  hüsn_ ü  ce *  mal   | 
c3de2 {f}eddc cBc4z2  | e4 e2e2 edc2 def2 ed | 
w:  â *  le *  me  *  sen   |  darb_ ı  me sel  | 
d6 dedc B^AB4z2  | c3d d4 f2ed d4 cB | \
w:  sin   SAZ  |  Ey  *  hüsn_ ü  ce *  mal   | 
c3de2 {f}eddc cBc4z2  | 
w:  â *  le *  me  *  sen   | 
e4 e2e2 edc2 def2 ed | d6 dedc Bcde fgf2  | 
w:  darb_ ı  me sel  |  sin   SAZ  | 
f4 f2ed g2g2 gfed c2 | d3ef2 eddc Bdcd c2B2  | 
w:  Â şık *  *  la rı  â  |  şüf *  te  e *  den   | 
e4 edc2 f2ed dedc cB | B6 dedc Bcde fgf2  | 
w:  naz lı  *  me lek  |  sin   SAZ  | 
f4 f2ed g2g2 gfed c2 | d3ef2 eddc Bdcd c2B2  | 
w:  Â şık *  *  la rı  â  |  şüf *  te  e *  den   | 
e4 edc2 f2ed dedc cB | B6 g2=fg afg4z2  | 
w:  naz lı  *  me lek  |  sin   SAZ  | 
=f3g g2f2 g2a2 aggf g2 | g3=fg2 a2gf _1/4egfg f2_3/4e2  | 
w:  Yok *  tur  *  şu  ci han  |  da  *  sa na  fa *  *  *  ik   | 
d3c aggf f3e def2 ed | d6 g2=fg afg4z2  | 
w:  *  *  ne  *  gü *  zel  |  sin   SAZ  | 
=f3g g2f2 g2a2 aggf g2 | g3=fg2 a2gf _1/4egfg f2_3/4e2  | 
w:  Yok *  tur  *  şu  ci han  |  da  *  sa na  fa *  *  *  ik   | 
d3c aggf f3e def2 ed | d6 dedc Bcde fgf2  | 
w:  *  *  ne  *  gü *  zel  |  sin   SAZ  | 
f4 f2ed g2g2 gfed c2 | d3ef2 eddc Bdcd c2B2  | 
w:  Â şık *  *  la rı  â  |  şüf *  te  e *  den   | 
e4 edc2 f2ed dedc cB | B6 dedc Bcde fgf2  | 
w:  naz lı  *  me lek  |  sin   SAZ  | 
f4 f2ed g2g2 gfed c2 | d3ef2 eddc Bdcd c2B2  | 
w:  Â şık *  *  la rı  â  |  şüf *  te  e *  den   | 
e4 edc2 f2ed dedc cB | B3gfe eddc cBB6  | 
w:  naz lı  *  me lek  |  sin   SAZ KARAR  | 
|


